X:2
T:Come my Lads - Olver
C:Taken down from Jas. Olver by F.W.B.1888
%%VWML:SBG-1-1-353-0
F:http://www.vwml.org/record/SBG/1/1/353
Z:Original Sibleius Transcription by Martin and Shan Graebe
L:1/4
M:4/4
I:linebreak $
K:G
G3/2 G/ G G | G B B A | D3/2 D/ D D | F A A G | G3/2 F/ E c | c c c B |$ B A G F | G G2 | 
d3/2 B/ B G | c c/4d/4c/4B/4 A2 | d3/2 B/ B G | c c/4d/4c/4B/4 A2 |$ d3/2 d/ d B | 
c/ c/ d/ d/ e2 | c B A G | F E D2 |"^Chorus" G3/2 G/ G G | G B B A |$ D D3/4 D/4 D D | F A A G | 
G3/2 F/ E E | c3 c | B A G F | A G2 |] 
T:Come my Lads - Ackford
T:Taken down from J. Ackford, Thrushleton, by S.B.G.
L:1/4
M:4/4
I:linebreak $
K:Bb
E3/2 F/ E E | E G G F | G3/2 F/ F F | F G F E |$ E3/2 G/ E3/2 G/ | E3/2 G/ G F | B B c D | 
E E2 |] 
T:Come my Lads - Gilbert
T:Taken down from S. Gilbert, Mawgan i/P. by F.W.B.
L:1/8
M:4/4
I:linebreak $
K:G
G3 G G2 G2 | G2 B2 B2 A2 | D3 D D2 D2 | D2 c2 c2 B2 | G3 G G2 G2 |$ B2 d2 d2 c2 | e2 d2 c2 B2 | 
w: |||||||
A4 G4 |[M:6/8]"^Chorus" ABc c3 | B c B A3 |$ A B c d3 | B c B A3 | A B c d2 d (c"^sic" B2) | 
w: |Let un- ion be|||||
A2 G G2 A | A2 A G3 |] 
w: ||



